X:18188
T:Valse  5 temps
C:Trad 2, 15
M:5/4
L:1/4
K:C
c/G/|Bdceg|g/f/ d/B/ c2 G/c/|:Bd cee|\
dfe2G/c/|Bdceg|fB c2g|fdecg|
fdecG/c/|Bdceg|fd g2g|fdecg|\
fdecG/c/|Bdceg|fBc2G/c/:|
